!!!COM: the-divine-comedy
!!!OTL: my-lovely-horse
!!!RNB: hooktheoryid: -kwxAXzXgKG
**kern	**text
*clefG2	*
*k[]	*
*M4/4	*
=1	=1
2r	C
8r	Em
8dd	.
8cc	.
8b	.
=2	=2
2a	Am
16cc	F
8b	.
8.a	.
16g	.
[16g	.
=3	=3
4g]	C
4r	.
2b	Em
=4	=4
2cc	Am
2a	F
=5	=5
16r	C
16cc	.
16cc	.
16cc	.
16cc	.
16cc	.
16cc	.
16cc	.
16cc	Em
8b	.
4b	.
16r	.
=6	=6
2cc	Am
2a	F
=7	=7
16r	C
16cc	.
16cc	.
16cc	.
8cc	.
16cc	.
16cc	.
16b	Em
8b	.
4b	.
16r	.
=8	=8
4a	Am
4g-	D
2g	G
=9	=9
1r	.
*-	*-